fe/src/assets/icons/addMusica.svg

<svg width="30" height="30" viewBox="0 0 30 30" fill="none" xmlns="http://www.w3.org/2000/svg">
<circle cx="15" cy="15" r="15" fill="#1B8D49"/>
<path d="M18.0824 8.58243H14.5824C12.9746 8.58516 11.6676 9.88946 11.6676 11.5V16.1813C11.1645 15.7957 10.552 15.5852 9.91758 15.5824C8.30703 15.5824 7 16.8895 7 18.5C7 20.1106 8.30703 21.4176 9.91758 21.4176C11.5281 21.4176 12.8324 20.1106 12.8324 18.5V11.5C12.8324 10.5348 13.6172 9.75001 14.5824 9.75001H18.0824C19.0477 9.75001 19.8324 10.5348 19.8324 11.5V16.1813C19.3293 15.7957 18.7168 15.5852 18.0824 15.5824C16.4719 15.5824 15.1648 16.8895 15.1648 18.5C15.1648 20.1106 16.4719 21.4176 18.0824 21.4176C19.693 21.4176 21 20.1106 21 18.5V11.5C20.9973 9.88946 19.693 8.58516 18.0824 8.58243ZM9.91758 20.25C8.95234 20.25 8.16758 19.4652 8.16758 18.5C8.16758 17.5348 8.95234 16.75 9.91758 16.75C10.8828 16.75 11.6676 17.5348 11.6676 18.5C11.6676 19.4652 10.8828 20.25 9.91758 20.25ZM18.0824 20.25C17.1172 20.25 16.3324 19.4652 16.3324 18.5C16.3324 17.5348 17.1172 16.75 18.0824 16.75C19.0477 16.75 19.8324 17.5348 19.8324 18.5C19.8324 19.4652 19.0504 20.25 18.0824 20.25Z" fill="white"/>
</svg>

<svg width="30" height="30" fill="none" xmlns="http://www.w3.org/2000/svg"><circle cx="15" cy="15" r="15" fill="#1B8D49"/><path d="M18.082 8.582h-3.5a2.92 2.92 0 0 0-2.914 2.918v4.681a2.894 2.894 0 0 0-1.75-.599 2.919 2.919 0 0 0 0 5.836 2.916 2.916 0 0 0 2.914-2.918v-7c0-.965.785-1.75 1.75-1.75h3.5c.966 0 1.75.785 1.75 1.75v4.681a2.894 2.894 0 0 0-1.75-.599 2.919 2.919 0 0 0 0 5.836A2.919 2.919 0 0 0 21 18.5v-7a2.922 2.922 0 0 0-2.918-2.918zM9.918 20.25c-.966 0-1.75-.785-1.75-1.75s.784-1.75 1.75-1.75c.965 0 1.75.785 1.75 1.75s-.785 1.75-1.75 1.75zm8.164 0c-.965 0-1.75-.785-1.75-1.75s.785-1.75 1.75-1.75a1.75 1.75 0 1 1 0 3.5z" fill="#fff"/></svg>
